picto/stairs-down-left-framed.svg

<svg class="color-immutable" width="30" height="30" viewBox="0 0 30 30" fill="none" xmlns="http://www.w3.org/2000/svg"><path d="M29.9999 0H0V29.9999H29.9999V0Z" fill="#2D327D"/><path d="M25.4999 2.99999C26.3249 2.99999 26.9999 3.67499 26.9999 4.49999V25.4999C26.9999 26.3249 26.3249 26.9999 25.4999 26.9999H4.49999C3.67499 26.9999 2.99999 26.3249 2.99999 25.4999V4.49999C2.99999 3.67499 3.67499 2.99999 4.49999 2.99999H25.4999ZM25.4999 2.62499H4.49999C3.46612 2.62499 2.62499 3.46612 2.62499 4.49999V25.4999C2.62499 26.5338 3.46612 27.3749 4.49999 27.3749H25.4999C26.5338 27.3749 27.3749 26.5338 27.3749 25.4999V4.49999C27.3749 3.46612 26.5338 2.62499 25.4999 2.62499Z" fill="white"/><path d="M19.9147 20.552H16.5013V21.9398H13.0881V23.3276H9.67466V24.0028H13.7632V22.6151H17.1764V21.2271H20.5898V19.8392H24.0031V19.1642H19.9147V20.552Z" fill="white"/><path d="M6.52811 14.5629C6.59501 14.5629 6.66131 14.5494 6.72326 14.5236L7.27413 14.2935V13.1959L6.33289 13.5891C6.14449 13.6679 6.02171 13.8522 6.02171 14.0563C6.02164 14.3361 6.24859 14.5629 6.52811 14.5629Z" fill="white"/><path d="M6.69262 24.0028C7.07579 24.0028 7.38651 23.6918 7.38651 23.3088V20.027L8.99946 17.2512V19.5996C8.99946 19.7374 9.03733 19.8723 9.10881 19.9899L10.7014 22.6061C10.8272 22.8128 11.0519 22.9392 11.2941 22.9392C11.6771 22.9392 11.988 22.6283 11.988 22.245C11.988 22.1178 11.953 21.9932 11.8868 21.8842L10.4998 19.6057V11.3908L11.25 12.4785V15.2259C11.25 15.5154 11.4852 15.7509 11.7751 15.7509C12.065 15.7509 12.3001 15.5154 12.3001 15.2259V12.3192C12.3001 12.1671 12.254 12.0183 12.1675 11.8931L10.6096 9.63418C10.3295 9.22805 9.86781 8.98558 9.37453 8.98558C8.54624 8.98558 7.87416 9.6578 7.87416 10.4859V16.2013L6.10019 19.254C6.03382 19.3687 5.99864 19.4988 5.99864 19.6311V23.3087C5.99872 23.6918 6.30967 24.0028 6.69262 24.0028Z" fill="white"/><path d="M9.1774 8.63518C9.90205 8.63518 10.4903 8.04695 10.4903 7.32231C10.4903 6.59751 9.90205 6.00966 9.1774 6.00966C8.45275 6.00966 7.8646 6.59751 7.8646 7.32231C7.8646 8.04695 8.45268 8.63518 9.1774 8.63518Z" fill="white"/></svg>

<svg class="color-immutable" width="30" height="30" viewBox="0 0 30 30" fill="none" xmlns="http://www.w3.org/2000/svg"><path d="M30 0H0v30h30V0Z" fill="#2D327D"/><path d="M25.5 3c.825 0 1.5.675 1.5 1.5v21c0 .825-.675 1.5-1.5 1.5h-21c-.825 0-1.5-.675-1.5-1.5v-21C3 3.675 3.675 3 4.5 3h21Zm0-.375h-21A1.877 1.877 0 0 0 2.625 4.5v21c0 1.034.841 1.875 1.875 1.875h21a1.877 1.877 0 0 0 1.875-1.875v-21A1.877 1.877 0 0 0 25.5 2.625Z" fill="#fff"/><path d="M19.915 20.552H16.5v1.388h-3.413v1.388H9.675v.675h4.088v-1.388h3.413v-1.388h3.414V19.84h3.413v-.675h-4.088v1.388ZM6.528 14.563a.508.508 0 0 0 .195-.04l.551-.23v-1.097l-.941.393a.507.507 0 0 0 .195.974Z" fill="#fff"/><path d="M6.693 24.003a.694.694 0 0 0 .694-.694v-3.282l1.612-2.776V19.6c0 .137.038.272.11.39l1.592 2.616a.694.694 0 1 0 1.186-.722L10.5 19.606V11.39l.75 1.088v2.747a.525.525 0 0 0 1.05 0v-2.907a.75.75 0 0 0-.133-.426L10.61 9.634a1.5 1.5 0 0 0-2.736.852V16.2L6.1 19.254a.753.753 0 0 0-.101.377v3.678c0 .383.31.694.694.694ZM9.177 8.635a1.313 1.313 0 1 0 0-2.627 1.313 1.313 0 0 0 0 2.627Z" fill="#fff"/></svg>
